svg/fluentui-system-icons/ic_fluent_data_usage_edit_24_filled.svg

<svg width="24" height="24" viewBox="0 0 24 24" fill="none" xmlns="http://www.w3.org/2000/svg">
<path d="M20 4.74609C20 3.22731 18.7688 1.99609 17.25 1.99609H4.75C3.23122 1.99609 2 3.22731 2 4.74609V17.2461C2 18.7649 3.23122 19.9961 4.75 19.9961H11.416L11.5209 19.5763C11.6829 18.9283 12.018 18.3366 12.4903 17.8643L14.6486 15.7059C14.5553 15.5843 14.5 15.4334 14.5 15.27V6.72881C14.5 6.32597 14.8358 5.9994 15.25 5.9994C15.6642 5.9994 16 6.32597 16 6.72881V14.3545L18.3927 11.9618C18.851 11.5035 19.411 11.2089 20 11.078V4.74609ZM6 8.74618C6 8.33374 6.33579 7.9994 6.75 7.9994C7.16421 7.9994 7.5 8.33374 7.5 8.74618V15.2526C7.5 15.6651 7.16421 15.9994 6.75 15.9994C6.33579 15.9994 6 15.6651 6 15.2526V8.74618ZM10.25 11.7296C10.246 11.3285 10.5707 11.0001 10.9751 10.9961C11.3795 10.9922 11.7106 11.3142 11.7146 11.7153L11.75 15.2626C11.754 15.6637 11.4293 15.9921 11.0249 15.9962C10.6205 16.0001 10.2894 15.6781 10.2854 15.277L10.25 11.7296ZM19.0999 12.6689L13.1974 18.5714C12.8533 18.9155 12.6092 19.3467 12.4911 19.8188L12.0334 21.6496C11.8344 22.4457 12.5556 23.1668 13.3517 22.9678L15.1824 22.5101C15.6545 22.3921 16.0857 22.1479 16.4299 21.8038L22.3323 15.9014C23.2249 15.0088 23.2249 13.5616 22.3323 12.6689C21.4397 11.7763 19.9925 11.7763 19.0999 12.6689Z" fill="#212121"/>
</svg>

<svg xmlns="http://www.w3.org/2000/svg" width="24" height="24"><path d="M20 4.746a2.75 2.75 0 0 0-2.75-2.75H4.75A2.75 2.75 0 0 0 2 4.746v12.5a2.75 2.75 0 0 0 2.75 2.75h6.666l.105-.42c.162-.648.497-1.24.97-1.712l2.158-2.158a.713.713 0 0 1-.149-.436V6.729a.74.74 0 0 1 .75-.73.74.74 0 0 1 .75.73v7.625l2.393-2.392A3.27 3.27 0 0 1 20 11.078V4.746Zm-14 4C6 8.334 6.336 8 6.75 8s.75.335.75.747v6.507a.748.748 0 0 1-.75.746.748.748 0 0 1-.75-.746V8.746Zm4.25 2.984a.73.73 0 0 1 .725-.734.73.73 0 0 1 .74.72l.035 3.547a.73.73 0 0 1-.725.733.73.73 0 0 1-.74-.719l-.035-3.547Zm8.85.939-5.903 5.902a2.686 2.686 0 0 0-.706 1.248l-.458 1.83a1.087 1.087 0 0 0 1.319 1.319l1.83-.458a2.686 2.686 0 0 0 1.248-.706l5.902-5.903A2.286 2.286 0 0 0 19.1 12.67Z"/></svg>
